X:1
T:Midnight On The Water
C:Traditional
N:As played by the Fiddlers of the Genessee, Fairport NY
M:3/4
L:1/8
K:D
|(DE|:"D".F2 .F2 .F2)|(.F2 .F2 .F2)|(F A3 A)(B|A F3) DE|F2 d2 ("G"Bd)
|"D"A3 (F DE|"A"F2) AFEF|1 "D"D4 (DE):|2 "D"D4 (Bd)|
|:(dc) (BA) Bc|d3 (B AF)|D4 d2|"Em"e4 ef|e3 (d ed)
|("Bm"f3 a) (fe)|(dc) (BA) (Bc)|"G"d3 (c d)e|(dc) (BA) Bc|"D"d3 (B AF)
|D4 ("^TAG"DE|F2) d2 "G"Bd|"D"A3 (F DE)|"A"F2 (AF EF)|1 "D"D4 (Bc):|2 "D"D4|

